static/img/device/device-manager.svg

<svg width="100" height="100" viewBox="0 0 100 100" fill="none" xmlns="http://www.w3.org/2000/svg">
<rect width="100" height="100" rx="15" fill="#A12944"/>
<g clip-path="url(#clip0_776_37857)">
<path d="M32.0949 37.8158L21.3429 30.3431L27.8872 21.0177L34.333 25.4889L44.1361 19.1562V11.336H55.5774V19.1562L61.1459 22.416" stroke="white" stroke-width="3" stroke-linecap="round" stroke-linejoin="round"/>
<path d="M56.5533 57.669L55.4252 70.664L44.0286 69.6931L44.709 61.8997L34.2883 56.618L27.4843 60.5281L21.7636 50.6772L28.5676 46.7671L28.6213 40.3275" stroke="white" stroke-width="3" stroke-linecap="round" stroke-linejoin="round"/>
<path d="M50.1074 51.7104C56.2038 51.7104 61.1459 46.7936 61.1459 40.7283C61.1459 34.6631 56.2038 29.7463 50.1074 29.7463C44.011 29.7463 39.0689 34.6631 39.0689 40.7283C39.0689 46.7936 44.011 51.7104 50.1074 51.7104Z" stroke="white" stroke-width="3" stroke-linecap="round" stroke-linejoin="round"/>
<path d="M61.6294 26.7091L73.5004 21.178L78.3527 31.4831L71.2355 34.7964L71.8442 46.4109L78.6571 50.3209L72.9364 60.1807L66.1235 56.2707L60.5013 59.4326" stroke="white" stroke-width="3" stroke-linecap="round" stroke-linejoin="round"/>
</g>
<g clip-path="url(#clip1_776_37857)">
<path d="M34.1407 81.3685V86.118C34.1458 86.4309 34.1509 86.9003 33.8849 87.1577C33.7008 87.3394 33.4092 87.4303 33.0051 87.4303H31.7212C31.5064 87.4303 31.1432 87.4303 30.8824 87.1779C30.6675 86.9659 30.5601 86.6126 30.555 86.1281V81.3685H28.9437V86.1432C28.9488 86.6177 29.0665 88.995 31.3376 88.995H33.4552C34.3146 88.995 35.757 88.6164 35.757 86.1382V81.3634H34.1355L34.1407 81.3685Z" fill="white"/>
<path d="M25.2046 84.1647L23.4501 83.9476C23.0256 83.882 22.6522 83.7811 22.6522 83.3369C22.6522 82.6353 22.8568 82.4435 24.289 82.4435H24.6471C25.491 82.4839 26.2737 82.5596 27.2353 82.817L27.3529 82.8473V81.7621L27.3427 81.742C27.1944 81.4644 25.8747 81.0151 24.5857 81.0202H24.2276C22.0537 81.0202 21 81.8177 21 83.458C21 85.0328 22.3402 85.371 23.5934 85.5628L24.3708 85.6688C24.9386 85.7394 25.2711 85.7849 25.4706 85.8656C25.8082 85.9968 25.9974 86.1129 25.9872 86.6379C25.977 87.511 25.3887 87.6069 24.1151 87.6069H23.757C23.0051 87.6069 22.0997 87.4 21.1279 87.0063L21 86.9508V88.0208C21 88.4549 22.3299 89.005 23.8184 89H24.1458C26.5754 89 27.7059 88.1874 27.7059 86.4561C27.7059 84.7754 26.4373 84.3615 25.2046 84.1697" fill="white"/>
<path d="M41.2609 81.0101H41.0256C38.0895 81.0101 37 82.1054 37 85.0379V89H38.7187V85.048C38.7136 82.8221 39.2148 82.4486 40.7289 82.4435H41.1125C42.5703 82.4435 42.8414 82.8625 42.8414 83.8871C42.8414 84.523 42.6317 85.2549 42.0384 85.2549L39.3376 85.2095V86.3703L39.4143 86.3804C39.9565 86.4713 40.9182 86.5369 41.6547 86.5369C44.1765 86.5369 44.5908 85.1691 44.5908 84.0233C44.5908 82.1306 43.3427 81.005 41.266 81.0101" fill="white"/>
<path d="M50.3606 81.106C49.9156 81.0353 48.8721 81 48.3453 81C47.4041 81 45.8286 81.3785 45.8286 83.9073V89H47.5166V84.0132C47.5115 82.6707 47.757 82.5344 48.821 82.5344H50.3606V81.106Z" fill="white"/>
<path d="M55.5575 87.5363H55.2302C53.8031 87.5363 52.9386 87.3697 52.9386 85.048C52.9386 82.8271 53.4399 82.4536 54.9642 82.4536H55.3478C56.7698 82.4536 57.0767 82.6808 57.0767 83.7407C57.0767 84.2707 56.8363 84.4978 56.2737 84.4978H53.5678V85.6133L53.6445 85.6284C54.1816 85.7192 55.1432 85.7849 55.8849 85.7849C56.9795 85.7849 58.8159 85.5779 58.8159 83.5035C58.8159 81.429 57.0051 81.0151 55.491 81.0202H55.2506C52.3095 81.0202 51.2148 82.1155 51.22 85.048C51.22 87.8543 52.3402 89 55.0818 88.995H55.2916C57.0256 88.995 58.4936 88.5407 58.4936 88.0057V87.082L58.376 87.1123C57.3683 87.3748 56.5806 87.5312 55.5575 87.5312" fill="white"/>
<path d="M70.1509 83.9577C70.1509 82.5798 69.624 81.8681 69.0511 81.5047C69.0511 81.5047 68.4322 81.0454 67.3325 81.0454C66.7954 81.0454 66.376 81.1161 66.0486 81.2221C65.5933 81.3483 65.312 81.5653 65.1688 81.7016C65.1176 81.747 65.0972 81.7773 65.0972 81.7773C65.0972 81.7773 64.5141 81.0353 62.8568 81.0454C62.1355 81.0454 61.6189 81.2423 61.3529 81.3785C61.3427 81.3785 61.3325 81.3886 61.3274 81.3937C61.312 81.4038 61.2967 81.4088 61.2864 81.4139C60.202 81.9943 60.0588 83.3117 60.0588 83.9678V89H61.5933V83.9678C61.5882 83.2107 61.7468 82.5091 62.8926 82.5091C64.0844 82.5091 64.3146 83.0442 64.3197 83.9678V89H65.9002V83.9628C65.8951 82.9584 66.3146 82.489 67.2097 82.489C68.1816 82.489 68.6164 82.9432 68.6215 83.9628V88.995H70.1611V83.9577H70.1509Z" fill="white"/>
<path d="M74.6624 82.4839H74.9898C76.4169 82.4839 77.2813 82.6505 77.2813 84.9722C77.2813 87.1931 76.7801 87.5666 75.2558 87.5666H74.8721C73.4501 87.5666 73.1432 87.3394 73.1432 86.2795C73.1432 85.7495 73.3836 85.5224 73.9463 85.5224H76.6522V84.4069L76.5755 84.3918C76.0384 84.3009 75.0767 84.2353 74.335 84.2353C73.2404 84.2353 71.4041 84.4423 71.4041 86.5167C71.4041 88.5912 73.2097 88.995 74.7238 88.9899H74.9642C77.9054 88.9899 79 87.8946 78.9949 84.9621C78.9949 82.1558 77.8747 81.0101 75.133 81.0151H74.9233C73.1893 81.0151 71.7212 81.4694 71.7212 82.0044V82.9281L71.8389 82.8978C72.8466 82.6353 73.6343 82.4789 74.6573 82.4789" fill="white"/>
</g>
<defs>
<clipPath id="clip0_776_37857">
<rect width="60" height="62" fill="white" transform="translate(20 10)"/>
</clipPath>
<clipPath id="clip1_776_37857">
<rect width="58" height="8" fill="white" transform="translate(21 81)"/>
</clipPath>
</defs>
</svg>

<svg xmlns="http://www.w3.org/2000/svg" width="100" height="100" fill="none" viewBox="0 0 100 100"><rect width="100" height="100" fill="#a12944" rx="15"/><g stroke="#fff" stroke-linecap="round" stroke-linejoin="round" stroke-width="3" clip-path="url(#a)"><path d="m32.095 37.816-10.752-7.473 6.544-9.325 6.446 4.47 9.803-6.332v-7.82h11.441v7.82l5.569 3.26M56.553 57.669l-1.128 12.995-11.396-.97.68-7.794-10.42-5.282-6.805 3.91-5.72-9.85 6.804-3.91.053-6.44"/><path d="M50.107 51.71c6.097 0 11.039-4.916 11.039-10.982s-4.942-10.982-11.039-10.982S39.07 34.663 39.07 40.728c0 6.066 4.942 10.982 11.038 10.982"/><path d="m61.63 26.71 11.87-5.532 4.853 10.305-7.117 3.313.608 11.615 6.813 3.91-5.72 9.86-6.813-3.91-5.623 3.162"/></g><g fill="#fff" clip-path="url(#b)"><path d="M34.14 81.369v4.749c.006.313.01.782-.255 1.04q-.275.272-.88.272h-1.284c-.215 0-.578 0-.839-.252-.215-.212-.322-.565-.327-1.05v-4.76h-1.611v4.775c.005.475.123 2.852 2.394 2.852h2.117c.86 0 2.302-.379 2.302-2.857v-4.775h-1.621zM25.205 84.165l-1.755-.217c-.424-.066-.798-.167-.798-.611 0-.702.205-.894 1.637-.894h.358c.844.04 1.627.117 2.588.374l.118.03v-1.085l-.01-.02c-.149-.278-1.468-.727-2.757-.722h-.358c-2.174 0-3.228.798-3.228 2.438 0 1.575 1.34 1.913 2.593 2.105l.778.106c.568.07.9.116 1.1.197.337.13.526.247.516.772-.01.873-.598.969-1.872.969h-.358c-.752 0-1.657-.207-2.63-.6L21 86.95v1.07c0 .434 1.33.984 2.818.979h.328c2.43 0 3.56-.813 3.56-2.544 0-1.68-1.269-2.094-2.501-2.286M41.26 81.01h-.234c-2.937 0-4.026 1.095-4.026 4.028V89h1.719v-3.952c-.005-2.226.496-2.6 2.01-2.605h.383c1.458 0 1.73.42 1.73 1.444 0 .636-.21 1.368-.804 1.368l-2.7-.045v1.16l.076.01c.542.091 1.504.157 2.24.157 2.522 0 2.937-1.368 2.937-2.514 0-1.892-1.248-3.018-3.325-3.013M50.36 81.106c-.444-.07-1.488-.106-2.015-.106-.94 0-2.516.379-2.516 2.907V89h1.688v-4.987c-.006-1.342.24-1.479 1.304-1.479h1.54zM55.558 87.536h-.328c-1.427 0-2.291-.166-2.291-2.488 0-2.22.5-2.594 2.025-2.594h.384c1.422 0 1.729.227 1.729 1.287 0 .53-.24.757-.803.757h-2.706v1.115l.077.015c.537.091 1.498.157 2.24.157 1.095 0 2.93-.207 2.93-2.281s-1.81-2.489-3.324-2.484h-.24c-2.941 0-4.036 1.096-4.031 4.028 0 2.806 1.12 3.952 3.862 3.947h.21c1.734 0 3.202-.454 3.202-.99v-.923l-.118.03c-1.008.263-1.795.42-2.818.42M70.15 83.958c0-1.378-.526-2.09-1.099-2.453 0 0-.619-.46-1.719-.46-.537 0-.956.071-1.283.177a2.06 2.06 0 0 0-.88.48c-.051.045-.072.075-.072.075s-.583-.742-2.24-.732c-.721 0-1.238.197-1.504.334-.01 0-.02.01-.026.015q-.024.014-.04.02c-1.085.58-1.228 1.898-1.228 2.554V89h1.534v-5.032c-.005-.757.154-1.459 1.3-1.459 1.191 0 1.422.535 1.427 1.459V89h1.58v-5.037c-.005-1.005.415-1.474 1.31-1.474.972 0 1.406.454 1.412 1.474v5.032h1.54v-5.037zM74.662 82.484h.328c1.427 0 2.291.166 2.291 2.488 0 2.221-.5 2.595-2.025 2.595h-.384c-1.422 0-1.729-.228-1.729-1.287 0-.53.24-.758.803-.758h2.706v-1.115l-.076-.015c-.538-.091-1.5-.157-2.241-.157-1.095 0-2.93.207-2.93 2.282 0 2.074 1.805 2.478 3.319 2.473h.24c2.941 0 4.036-1.095 4.03-4.028 0-2.806-1.12-3.952-3.861-3.947h-.21c-1.734 0-3.202.454-3.202.99v.923l.118-.03c1.008-.263 1.795-.42 2.818-.42"/></g><defs><clipPath id="a"><path fill="#fff" d="M20 10h60v62H20z"/></clipPath><clipPath id="b"><path fill="#fff" d="M21 81h58v8H21z"/></clipPath></defs></svg>
